src/assets/icons/icon-telegram.svg

<svg width="40" height="40" viewBox="0 0 40 40" fill="none" xmlns="http://www.w3.org/2000/svg">
<path d="M31.7801 11.8207L28.1813 28.7927C27.9098 29.9905 27.2017 30.2887 26.1956 29.7244L20.7121 25.6837L18.0663 28.2284C17.7735 28.5212 17.5286 28.7661 16.9643 28.7661L17.3582 23.1815L27.5212 13.9981C27.963 13.6042 27.4253 13.3859 26.8344 13.7799L14.2705 21.6909L8.86157 19.998C7.68503 19.6306 7.66374 18.8214 9.10646 18.2571L30.2629 10.1065C31.2424 9.73917 32.0996 10.3248 31.7801 11.8207Z" fill="white"/>
</svg>

<svg width="40" height="40" fill="none" xmlns="http://www.w3.org/2000/svg"><path d="m31.78 11.82-3.599 16.973c-.271 1.198-.98 1.496-1.985.931l-5.484-4.04-2.646 2.544c-.293.293-.537.538-1.102.538l.394-5.584 10.163-9.184c.442-.394-.096-.612-.687-.218l-12.563 7.91-5.41-1.692c-1.176-.367-1.197-1.177.245-1.74l21.157-8.151c.98-.368 1.837.218 1.517 1.714Z" fill="#fff"/></svg>
